X:1
T:Only Thy Garment’s Hem
T:Only Thy Garment’s Hem
T:William Howard Doane
T:Frances Jane (Fanny) Crosby, 1877
T:Public Domain Courtesy of the Cyber Hymnal™
T:Public Domain Courtesy of the Cyber Hymnal™
C:William Howard Doane
Z:Public Domain
Z:Courtesy of the Cyber Hymnal™
%%score 1 ( 2 3 )
L:1/8
Q:1/4=100
M:4/4
K:Ab
V:1 treble 
V:2 bass 
V:3 bass 
V:1
 [CE]2 [EA]>[FB] [EA]2 [EG]2 | [DE]2 [EB]>[Ec] [EA]4 | [Ac]2 [Ac][Ac] [ce]>[Bd] [Ac][GB] | %3
w: 1.~Crowds are be- hind Thee,|crowds are be- fore,|Life in a sin- gle mo- ment|
w: 2.~On- ly to touch Thee,|Sav- ior, I know,|Peace to my trou- bled spir- it|
w: 3.~Lord, I am sin- ful,|Thou un- de- filed,|Yet dost Thou love and ev- en|
 A2 [EG][EA] [EB]4 | [CE]2 [EA]>[FB] [EA]2 [EG]2 | [DE]2 [EB]>[Ec] [EA]4 | %6
w: Thou canst re- store.|On- ly to touch Thee,|spot- less and pure,|
w: Thou wilt be- stow;|Onl- y to touch Thee,|this is my prayer,|
w: call me Thy child;|Great is Thy mer- cy,|wond- rous to me;|
 [Ec]2 [Fc][Fc] [Fd]>[Fc] [FB][FA] | [EA]2 [Ec]>[DB] [CA]4 || %8
w: On- ly to touch Thy gar- ment,|faith brings the cure.|
w: Long- er my hea- vy bur- den|I can- not bear.|
w: Lord, ’tis my faith that saves me,|glo- ry to Thee!|
"^Refrain" [Ec]2 [Ec][Ec] [Ee]>[Ed] [Ec]2 | [Ec]2 [EB][EA] [EB]4 | [EB]2 [EB][EB] [Ed]>[Ec] [EB]2 | %11
w: |||
w: On- ly Thy gar- ment’s hem,|Lord, I im- plore;|On- ly Thy gar- ment’s hem|
w: |||
 [EB]2 [EA][EB] [Ec]4 | [Ec]2 [Ec][Ec] [Ee]>[Ed] [Ec]2 | [Fc]2 [FB][F=A] [FB]4 | %14
w: |||
w: life will re- store;|On- ly a touch will bring|joy to my soul;|
w: |||
 [Fd]2 [Fc][FB] [EA]>[EG] [EA][Ec] | [EB]2 [EA][EG] [EA]4 |] %16
w: ||
w: Let me but touch Thy gar- ment,|I shall be whole.|
w: ||
V:2
 [A,,A,]2 [C,A,]>[D,D] [E,C]2 [E,B,]2 | (G,B,) [E,D]>[E,D] [A,,C]4 | %2
 [A,E]2 [A,E][A,E] [A,E]>[G,E] [A,E][B,E] | [CE]2 [B,D][A,C] [E,G,]4 | %4
 [A,,A,]2 [A,,C]>[D,D] [E,C]2 [E,B,]2 | (G,B,) [E,D]>[E,D] [A,C]4 | %6
 A,2 [F,=A,][F,A,] [B,,B,]>[C,A,] [D,B,][=D,=B,] | [E,C]2 [E,A,]>[E,G,] [A,,A,]4 || %8
 A,2 A,A, [A,C]>[G,B,] A,2 | [A,,A,]2 [B,,G,][C,A,] [E,G,]4 | %10
 [E,D]2 [E,D][E,D] [E,B,]>[E,A,] [E,G,]2 | [E,D]2 [E,C][E,G,] [A,,A,]4 | %12
 A,2 A,A, [A,C]>[G,B,] A,2 | [F,E]2 [F,D][F,C] [B,,D]4 | %14
 [B,,B,]2 [C,E][D,D] [E,C]>[E,B,] [E,C][E,A,] | [E,D]2 [E,C][E,D] [A,,C]4 |] %16
V:3
 x8 | E,2 x6 | x8 | x8 | x8 | E,2 x6 | =A,2 x6 | x8 || A,2 A,A, x A,2 x | x8 | x8 | x8 | %12
 A,2 A,A, x A,2 x | x8 | x8 | x8 |] %16

